resources/svg/device-fill.svg

<svg fill="currentColor" viewBox="0 0 24 24" xmlns="http://www.w3.org/2000/svg"><path d="M19 6H11C10.4477 6 10 6.44772 10 7V20H4C3.44772 20 3 19.5523 3 19V3C3 2.44772 3.44772 2 4 2H18C18.5523 2 19 2.44772 19 3V6ZM13 8H21C21.5523 8 22 8.44772 22 9V21C22 21.5523 21.5523 22 21 22H13C12.4477 22 12 21.5523 12 21V9C12 8.44772 12.4477 8 13 8Z"/></svg>

<svg xmlns="http://www.w3.org/2000/svg" viewBox="0 0 24 24" fill="currentColor">
    <g>
        <path fill="none" d="M0 0h24v24H0z"/>
        <path d="M19 6h-8a1 1 0 0 0-1 1v13H4a1 1 0 0 1-1-1V3a1 1 0 0 1 1-1h14a1 1 0 0 1 1 1v3zm-6 2h8a1 1 0 0 1 1 1v12a1 1 0 0 1-1 1h-8a1 1 0 0 1-1-1V9a1 1 0 0 1 1-1z"/>
    </g>
</svg>
